packages/uiweb/src/lib/icons/copyVector.svg

<svg fill="none" height="24" viewBox="0 0 24 24" width="24" xmlns="http://www.w3.org/2000/svg"><g stroke="#82828a" stroke-linecap="round" stroke-linejoin="round" stroke-width="2"><path d="m12.4856 19.9999-1.2425 1.2425c-1.1283 1.1101-2.64955 1.7294-4.23237 1.7229-1.58283-.0064-3.09898-.638-4.21821-1.7573-1.11924-1.1192-1.75087-2.6354-1.75731-4.2182-.00645-1.5828.61281-3.104 1.7229-4.2324l3.01375-3.00745c1.08102-1.08322 2.53509-1.71243 4.06473-1.7589 1.52961-.04647 3.01921.4933 4.16401 1.5089"/><path d="m11.515 4.00061 1.2425-1.2425c1.1283-1.11009 2.6496-1.72935 4.2324-1.7229 1.5828.00644 3.099.63807 4.2182 1.75731 1.1192 1.11923 1.7509 2.63538 1.7573 4.21821.0064 1.58282-.6128 3.10407-1.7229 4.23237l-3.0137 3.0138c-1.0819 1.0823-2.5364 1.7104-4.066 1.7557-1.5297.0453-3.0188-.4956-4.1628-1.512"/></g></svg>

<svg width="24" height="24" viewBox="0 0 24 24" fill="none" xmlns="http://www.w3.org/2000/svg">
<path d="M12.4856 19.9999L11.2431 21.2424C10.1148 22.3525 8.59355 22.9718 7.01073 22.9653C5.4279 22.9589 3.91175 22.3273 2.79252 21.208C1.67328 20.0888 1.04165 18.5726 1.03521 16.9898C1.02876 15.407 1.64802 13.8858 2.75811 12.7574L5.77186 9.74995C6.85288 8.66673 8.30695 8.03752 9.83659 7.99105C11.3662 7.94458 12.8558 8.48435 14.0006 9.49995" stroke="#82828A" stroke-width="2" stroke-linecap="round" stroke-linejoin="round"/>
<path d="M11.515 4.00061L12.7575 2.75811C13.8858 1.64802 15.4071 1.02876 16.9899 1.03521C18.5727 1.04165 20.0889 1.67328 21.2081 2.79252C22.3273 3.91175 22.959 5.4279 22.9654 7.01073C22.9718 8.59355 22.3526 10.1148 21.2425 11.2431L18.2288 14.2569C17.1469 15.3392 15.6924 15.9673 14.1628 16.0126C12.6331 16.0579 11.144 15.517 10 14.5006" stroke="#82828A" stroke-width="2" stroke-linecap="round" stroke-linejoin="round"/>
</svg>
